X:27
T:Mack Beth
Z:Jack Campin - http://www.campin.me.uk
S:Blaikie MS (NLS MS.1578) p10, Blaikie #26
M:6/8
L:1/8
V:1 midi program 1 74
V:2 midi program 1 46 bass middle = d transpose -24
Q:3/8=112
K:G
[V:1] d2e  dBG|A2G  A2B|cde dBG |A2G G3 |
[V:2] G3   g3 |d3   d'3|c'3 g3  |d3  g3 |
%
[V:1] d2e  dBG|A2G  A2B|cde dBG |A2G G3||
[V:2] G3   g3 |d3   f2g|b2c g3  |d3  g3||
%
[V:1] A2B  ADD|G2A  B2A|Bcd B>AG|A2B c2d|
[V:2] d3   d2f|g2f  g2d|G3  g3  |f2g a2g|
%
[V:1] e2d  c2B|A2G  A2G|ABc dBG |A2G G3|]
[V:2] c'2b a2g|c2^c d2g|d3  g2G |d3  g3|]
W:Transcription (c) Jack Campin 2009, no mirroring or republication without permission

